32x32/apps/cs-privacy.svg

<svg height="32" width="32" xmlns="http://www.w3.org/2000/svg"><rect fill="#325f78" height="28" rx="14" width="28" x="2" y="2"/><rect height="22" opacity=".2" rx="11" transform="matrix(0 -1 -1 0 0 0)" width="22" x="-28" y="-27"/><rect fill="#5c8ba2" height="22" rx="11" transform="matrix(0 -1 -1 0 0 0)" width="22" x="-27" y="-27"/><path d="m16 8.75-2.227 2.672a6 6 0 0 0 -3.773 5.578 6 6 0 0 0 12 0 6 6 0 0 0 -3.773-5.578z" opacity=".2"/><path d="m16 7.75-2.227 2.672a6 6 0 0 0 -3.773 5.578 6 6 0 0 0 12 0 6 6 0 0 0 -3.773-5.578z" fill="#f4f4f7"/><path d="m16 2c-7.756 0-14 6.244-14 14 0 .169.02.333.025.5a13.957 13.957 0 0 1 13.975-13.5c7.588 0 13.711 5.98 13.975 13.5.006-.167.026-.331.026-.5 0-7.756-6.244-14-14-14z" fill="#fff" opacity=".1"/><path d="m16 5c-6.094 0-11 4.906-11 11 0 .169.018.333.025.5a10.966 10.966 0 0 1 10.975-10.5 10.966 10.966 0 0 1 10.975 10.5c.007-.167.026-.331.026-.5 0-6.094-4.906-11-11-11z" fill="#fff" opacity=".1"/><path d="m2.025 16.5c-.006.167-.025.331-.025.5 0 7.756 6.244 14 14 14s14-6.244 14-14c0-.169-.02-.333-.025-.5-.265 7.521-6.388 13.5-13.975 13.5-7.588 0-13.711-5.979-13.975-13.5z" opacity=".2"/></svg>

<svg height="32" width="32" xmlns="http://www.w3.org/2000/svg">
    <rect fill="#325f78" height="28" rx="14" width="28" x="2" y="2"/>
    <rect height="22" opacity=".2" rx="11" transform="matrix(0 -1 -1 0 0 0)" width="22" x="-28" y="-27"/>
    <rect fill="#5c8ba2" height="22" rx="11" transform="matrix(0 -1 -1 0 0 0)" width="22" x="-27" y="-27"/>
    <path d="m16 8.75-2.227 2.672A6 6 0 0 0 10 17a6 6 0 0 0 12 0 6 6 0 0 0-3.773-5.578z" opacity=".2"/>
    <path d="m16 7.75-2.227 2.672A6 6 0 0 0 10 16a6 6 0 0 0 12 0 6 6 0 0 0-3.773-5.578z" fill="#f4f4f7"/>
    <path d="M16 2C8.244 2 2 8.244 2 16c0 .169.02.333.025.5A13.957 13.957 0 0 1 16 3c7.588 0 13.711 5.98 13.975 13.5.006-.167.026-.331.026-.5 0-7.756-6.244-14-14-14z" fill="#fff" opacity=".1"/>
    <path d="M16 5C9.906 5 5 9.906 5 16c0 .169.018.333.025.5A10.966 10.966 0 0 1 16 6a10.966 10.966 0 0 1 10.975 10.5c.007-.167.026-.331.026-.5 0-6.094-4.906-11-11-11z" fill="#fff" opacity=".1"/>
    <path d="M2.025 16.5c-.006.167-.025.331-.025.5 0 7.756 6.244 14 14 14s14-6.244 14-14c0-.169-.02-.333-.025-.5C29.71 24.021 23.587 30 16 30A13.957 13.957 0 0 1 2.025 16.5z" opacity=".2"/>
</svg>
